!!!OTL: 203c. Drei Roeslein.
!!!ARE: Europa, Mitteleuropa, Deutschland, Wetterau, Butzbach
!!!SCT: E0203B
!!!TXL: @@DE
!!!YEM: Copyright 1995, estate of Helmut Schaffrath.
**kern	**text
*ICvox	*
*M3/4	*
*k[f#]	*
*G:	*
!LO:TX:a:t=Etwas langsam.	!
!LO:TX:a:t=Melodie und Text aus der Wetteran (Butʒbach).	!
{4d	Jetʒt
=1	=1
4d	geh
4b	ich
4a	an's
=2	=2
4.g	Brün-
8f#	-ne-
4g}	-lein,
=3	=3
{4a	trink
4b	a-
4dd	-ber
=4	=4
2a}	nicht,
{8f#	und
8g	da
=5	=5
4a	ſuch
4a	ich
8cc	mein
8ee	herʒ-
=6	=6
4dd	-tau-
8dd	-ſen-
8cc	-den
4b}	Schatʒ,
=7	=7
{8cc	find'n
8cc	.
4b	a-
4a	-ber
=8	=8
2g}	nicht.
{8f#	und
8g	da
=9	=9
4a	ſuch
4a	ich
8cc	mein
8ee	herʒ-
=10	=10
4dd	-tau-
8dd	-ſen-
8cc	-den
4b}	Schatʒ,
=11	=11
{8cc	find'n
8cc	.
4b	a-
4a	-ber
=12	=12
2g}	nicht.
==	==
!!!AGN: erzaehlendes Volks - Lied, Todes - Ahnung; betrogene Liebe
!!!ONB: ESAC (Essen Associative Code) Database: ERK1
!!!AMT: simple triple
!!!AIN: vox
!!!EED: Helmut Schaffrath
!!!EEV: 1.0
!!!GTL: Todtensagen (Todesahnung, Geisterliebe, Grabesstimmen)
!!!URL-scan: https://rosdok.uni-rostock.de/mcrviewer/recordIdentifier/rosdok_ppn745146120/iview2/phys_0676.iview2?x=-128.7727644188933&y=488.25890465732664&scale=0.5870222003877484&rotation=0&layout=singlePageLayout
!!!ENC: Anna Maria Matuszewska
!!!EEV: 2024/06/12
*-	*-
